X: 0035
T: Tommos Anders Polskor efter S.G.Larsson
C: C.G.
%R: polska
B: Paul B\"ackstr\"om's "L\aatar fr\aan Dalarna" collection" 1974
Z: 2022 John Chambers <jc:trillian.mit.edu>
M: 3/4
L: 1/16
K: A
% - - - - - - - - - -
|:\
(e4 a3)g b3f | {g}f4 (efe)d c3d | (e4 a3)g b3f | ({g}f2e2) e8 :: (e2a2) a3Tf d4 | (d2f2) f3Te c4 |
(c2e2) e3Td B3c | (B2A2) (.A.B.c.d) e4 | (e2a2) a3Tf d4 | (d2f2) f3Te c4 | (c2e2) e3Td B3c | (3(B2G2B2) A8 :|
% - - - - - - - - - -
%%text Jmf 42 (=S.L. 404), 1050, S.L. 573

%%sep 2 1 500
%%sep 1 1 500

